svg/fluentui-system-icons/ic_fluent_comment_multiple_link_16_regular.svg

<svg width="16" height="16" viewBox="0 0 16 16" fill="none" xmlns="http://www.w3.org/2000/svg">
<path d="M3.05001 3C3.28164 1.85888 4.29052 1 5.5 1H12C13.6569 1 15 2.34315 15 4V8.5C15 8.95541 14.8782 9.38239 14.6655 9.75014C14.4044 9.54425 14.1132 9.37475 13.7997 9.24928C13.9271 9.02882 14 8.77292 14 8.5V4C14 2.89543 13.1046 2 12 2H5.5C4.84689 2 4.29127 2.4174 4.08535 3H11C12.1046 3 13 3.89543 13 5V9.03544C12.8367 9.01209 12.6698 9 12.5 9H12V5C12 4.44772 11.5523 4 11 4H3C2.44772 4 2 4.44772 2 5V11C2 11.5523 2.44772 12 3 12H4V14.0284L5.08179 13.2557C5.15734 13.5989 5.28326 13.9233 5.45141 14.2206L4.58124 14.8421C3.91937 15.3149 3 14.8418 3 14.0284L3 13C1.89543 13 1 12.1046 1 11V5C1 3.89543 1.89543 3 3 3H3.05001ZM8.5 10C7.11929 10 6 11.1193 6 12.5C6 13.8807 7.11929 15 8.5 15H9C9.27614 15 9.5 14.7761 9.5 14.5C9.5 14.2239 9.27614 14 9 14H8.5C7.67157 14 7 13.3284 7 12.5C7 11.6716 7.67157 11 8.5 11H9C9.27614 11 9.5 10.7761 9.5 10.5C9.5 10.2239 9.27614 10 9 10H8.5ZM12 10C11.7239 10 11.5 10.2239 11.5 10.5C11.5 10.7761 11.7239 11 12 11H12.5C13.3284 11 14 11.6716 14 12.5C14 13.3284 13.3284 14 12.5 14H12C11.7239 14 11.5 14.2239 11.5 14.5C11.5 14.7761 11.7239 15 12 15H12.5C13.8807 15 15 13.8807 15 12.5C15 11.1193 13.8807 10 12.5 10H12ZM8 12.5C8 12.2239 8.22386 12 8.5 12H12.5C12.7761 12 13 12.2239 13 12.5C13 12.7761 12.7761 13 12.5 13H8.5C8.22386 13 8 12.7761 8 12.5Z" fill="#212121"/>
</svg>

<svg xmlns="http://www.w3.org/2000/svg" width="16" height="16"><path d="M3.05 3A2.5 2.5 0 0 1 5.5 1H12a3 3 0 0 1 3 3v4.5c0 .455-.122.882-.335 1.25a3.497 3.497 0 0 0-.865-.5 1.5 1.5 0 0 0 .2-.75V4a2 2 0 0 0-2-2H5.5a1.5 1.5 0 0 0-1.415 1H11a2 2 0 0 1 2 2v4.035A3.53 3.53 0 0 0 12.5 9H12V5a1 1 0 0 0-1-1H3a1 1 0 0 0-1 1v6a1 1 0 0 0 1 1h1v2.028l1.082-.772c.075.343.201.667.37.965l-.87.621A1 1 0 0 1 3 14.028V13a2 2 0 0 1-2-2V5a2 2 0 0 1 2-2h.05Zm5.45 7a2.5 2.5 0 0 0 0 5H9a.5.5 0 0 0 0-1h-.5a1.5 1.5 0 0 1 0-3H9a.5.5 0 0 0 0-1h-.5Zm3.5 0a.5.5 0 0 0 0 1h.5a1.5 1.5 0 0 1 0 3H12a.5.5 0 0 0 0 1h.5a2.5 2.5 0 0 0 0-5H12Zm-4 2.5a.5.5 0 0 1 .5-.5h4a.5.5 0 0 1 0 1h-4a.5.5 0 0 1-.5-.5Z"/></svg>
